X:13451
T:Polska fr J\"amtland
S:Christina Eketorp
R:Polska
O:Sweden
M:3/4
A:J\"amtland
K:D
d>d (3faf d2|(3AdA (3FAF (3DEF|G>B B<G G>E\
|1 E>A A<F F>D :|2 (3A,B,C D4 D4::
A>d (3faf d>f|a>a (3faf (3dgb|g>g (3ege (3cec\
|1 d>B (3BAG B>A :|2 (3ABc d2 d2 :|
